!!!!SEGMENT: d-b--slg-bohn-ms-mus-111--011_jarzebski-adam--canzoni-e-concerti-11-venite-exultemus.krn
!!!cenid: 16xx:1784
!!!COM: Jarzębski, Adam
!!!COM-rismID: pe30017782
!!!CDT:
!!!CNT:
!!!GTL: Canzoni e Concerti
!!!OTL: 11. Venite Exultemus
!!!OMV: 011
!!!PDT: 1627
!!!AGN:
!!!SMS-siglum: D-B
!!!SMS-shelfmark: Slg Bohn Ms.mus. 111
!!!SMS-shelfwork: 002-011 G
!!!SMS-variant:
!!!SMS-altvar:
!!!NIFC-rismSourceID: 1001062014
!!!NIFC-rismChildID: 1001062014
!!!NIFC-islandoraID: none
!!!URL-pdf-islandora:
!!!URL-scan: https://digital.staatsbibliothek-berlin.de/werkansicht/?PPN=PPN1049147219 @EN{Scan on Staatsbibliothek zu Berlin Website} @PL{Skany w portalu Staatsbibliothek zu Berlin}
!!!ONB-nifc: UWAGA: Prima vox: s. 20-21, Seconda vox: s. 80-81, Basso continuo: s. 171. Uwaga: proszę wpisywać partie tylko występujące w danym koncercie i nazywać partie wg określeń podawanych przy danym utworze. Kody instr. dla humdrumowców podane zostaną na forum.
!!!filter-modern: sic -sq | shed -e "s/TX(.*):t=P:/tx$1:t=P:/LG" | shed -e "s/^(\d+[\/\\]right)/$1yy/I;s/^(\d+[\/\\]left)/$1yy/I" | shed -k -e "s/#X/#/g" |shed -k -e "s/-X/-/g" | shed -e "s/^custos:/Xcustos:/I" | shed -k -e "s/LO:N:vis/LO:n:vis:/L" | shed -e "s/:rj/:RJ/L" | shed -e "s/LO:DY:(a|b|rj)/LO:dy:$1/L" | shed -e "s/-//B" | tie -s | autostem -r  | modori -m
!!!AIN: 1 soprn 1 viola
!!!key:
**kern	**fba	**kern	**kern
*	*	*group1	*group1
*part3	*part3	*part2	*part1
*staff3	*	*staff2	*staff1
*I"Baſso Continúo.	*	*I"Baſtarda	*I"Canto
*mI"Basso continuo	*	*mI"Bastarda	*mI"Soprano
*I'bc	*	*I'vla bastarda	*I'S
*	*	*ICstr	*ICvox
*	*	*Iviola	*Isoprn
*IGcont	*	*	*
*clefC4	*	*clefF4	*clefG2
*	*	*	*mclefG2
*k[]	*	*k[]	*k[]
*d:	*	*d:	*d:
*M2/2	*	*M2/2	*M2/2
*met(C|)	*	*met(C|)	*met(C|)
*mmet(c|)	*	*mmet(c|)	*mmet(c|)
=1-	=1-	=1-	=1-
!!LO:TX:t=P:problem:all/right or middle	!	!
!LO:TX:a:t=Venite Exultem(us).:mod=	!	!LO:TX:a:t=Venite Exultem(us).:mod=	!LO:TX:a:t=Venite Exultemus.:mod=
1e	.	1E	00r
=2-	=2-	=2-	=2-
*2\right	*	*2\right	*
2e\	.	2E\	.
!LO:TX:t=P:problem:kreska pseudotaktowa	!	!	!
2e\	.	2E\	.
=3-	=3-	=3-	=3-
2d\	.	2D/	.
2c\	.	4C/	.
.	.	8D/L	.
!	!	!LO:TX:t=P:problem:kreska pseudotaktowa	!
.	.	8E/J	.
=4-	=4-	=4-	=4-
!LO:TX:t=P:problem:kreska pseudotaktowa	!	!	!
1f	.	4.F\	.
.	.	8E\	.
.	.	8F\L	.
.	.	8E\	.
.	.	8F\	.
.	.	8G\J	.
=5-	=5-	=5-	=5-
2e\	.	1E	1ee
2e\	.	.	.
=6-	=6-	=6-	=6-
*	*	*	*2\right
2.a\	.	0r	2ee\
.	.	.	2ee\
!LO:TX:t=P:problem:kreska pseudotaktowa	!	!	!
4g\	.	.	.
=7-	=7-	=7-	=7-
2f\	.	.	2dd\
2.e\	.	.	4cc\
.	.	.	8dd\L
.	.	.	8ee\J
=8-	=8-	=8-	=8-
.	.	1r	4.ff\
4d\	.	.	.
.	.	.	8ee\
!LO:TX:t=P:problem:kreska pseudotaktowa	!	!	!
2d\	.	.	8ff\L
.	.	.	8ee\
.	.	.	8ff\
.	.	.	8gg\J
!	!	!	!
*	*	*	*
=9-	=9-	=9-	=9-
!LO:MO:null:mod=*clefF4	!	!	!
*	*	*	*
1A	.	2r	1ee
.	.	2A\	.
=10-	=10-	=10-	=10-
2A/	.	2A\	2r
!LO:TX:t=P:problem:kreska pseudotaktowa	!	!	!
2A/	.	2A\	4r
.	.	.	4aa\
=11-	=11-	=11-	=11-
2G/	-	2G\	2bb-X\
2F/	.	4F\	2aa\
.	.	8G\L	.
!	!	!LO:TX:t=P:problem:kreska pseudotaktowa	!
.	.	8A\J	.
=12-	=12-	=12-	=12-
!LO:TX:t=P:problem:kreska pseudotaktowa	!	!	!
1B-X	.	4.B-X\	2ff\
.	.	8A\	.
.	.	8B-\L	2gg\
.	.	8A\	.
.	.	8B-\	.
.	.	8c\J	.
*	*	*	*custos:aa
!	!	!	!LO:LB:g=original
=13-	=13-	=13-	=13-
0A	.	2A\	[4aa\
.	.	.	16aa\]
.	.	.	16gg\
.	.	.	16ff\
.	.	.	16gg\JJ
!	!	!LO:TX:t=P:problem:kreska pseudotaktowa	!
.	.	2r	16ee\LL
.	.	.	16ff\
!	!	!	!LO:SIC:v:s=16dd
.	.	.	16ee\
!	!	!	!LO:SIC:v:s=16eeJJ
.	.	.	16ff\JJ
.	.	.	16cc\LL
.	.	.	16dd\
.	.	.	16b\
.	.	.	16cc\JJ
=14-	=14-	=14-	=14-
.	.	8.A\L	1a
.	.	16d\Jk	.
.	.	16c\LL	.
.	.	16d\	.
.	.	16Bny\	.
.	.	16c\JJ	.
.	.	16A\LL	.
.	.	16B\	.
.	.	16G\	.
.	.	16A\JJ	.
.	.	16F\LL	.
.	.	16G\	.
.	.	16E\	.
.	.	16F\JJ	.
=15-	=15-	=15-	=15-
2d\	.	2D/	16r
.	.	.	16a/LL
.	.	.	16b/
.	.	.	16cc/JJ
.	.	.	16dd\LL
.	.	.	16ee\
.	.	.	16ff\
.	.	.	16gg\JJ
!	!	!	!LO:TX:t=P:problem:kreska pseudotaktowa
2c#X\	.	16r	[2aa\
.	.	16D\LL	.
.	.	16E\	.
.	.	16F\JJ	.
!	!	!LO:MO:mod=*null:null	!
*	*	*clefC4	*
.	.	16G\LL	.
.	.	16A\	.
.	.	16B\	.
!	!	!LO:TX:t=P:problem:kreska pseudotaktowa	!
!	!	!LO:TX:a:t=P:problem:# above	!
.	.	16c#X\JJ	.
=16-	=16-	=16-	=16-
2d\	.	[2d\	8.aa\]
!	!	!	!LO:TX:a:t=P:problem:♭ above
.	.	.	16bb-X\Jk
.	.	.	8.gg\L
.	.	.	16aa\Jk
2D/	.	8.d\]L	4.ff\
.	.	16e\Jk	.
.	.	8.d\L	.
!	!	!	!LO:TX:t=P:problem:kreska pseudotaktowa
.	.	.	8gg\
!	!	!LO:TX:t=P:problem:kreska pseudotaktowa	!
.	.	16e\Jk	.
*custos:A	*	*	*
!LO:LB:g=original	!	!	!
=17-	=17-	=17-	=17-
1.A	.	8.cny\L	[2ee\
.	.	16d\Jk	.
.	.	8.c\L	.
.	.	16B\Jk	.
.	.	[2A/	8.ee\L]
.	.	.	16ff\Jk
.	.	.	8.ee\L
.	.	.	16dd\Jk
*	*	*custos:A	*
!	!	!LO:LB:g=original	!
=18-	=18-	=18-	=18-
.	.	2A/]	8.cc\L
.	.	.	16dd\Jk
.	.	.	8.cc\L
.	.	.	16dd\Jk
!LO:TX:t=P:problem:kreska pseudotaktowa	!	!LO:TX:t=P:problem:kreska pseudotaktowa	!
2G#X/	.	2G#X/	4.b/
.	.	.	8cc\
!	!	!LO:MO:mod=*null:null	!
*	*	*clefF4	*
=19-	=19-	=19-	=19-
2.A/	.	4A\	1a
.	.	8AA/L	.
.	.	8BB/J	.
.	.	8C/L	.
.	.	8AA/J	.
4cny\	.	8D/L	.
!	!	!LO:TX:t=P:problem:kreska pseudotaktowa	!
.	.	8C/J	.
*	*	*	*custos:dd
!	!	!	!LO:LB:g=original
=20-	=20-	=20-	=20-
!LO:TX:t=P:problem:kreska pseudotaktowa	!	!	!
1B	.	2BB/	2r
.	.	2BB/	4r
.	.	.	8dd\L
.	.	.	8ee\J
=21-	=21-	=21-	=21-
1A	.	1AA	8ff\L
.	.	.	8dd\
.	.	.	8gg\
.	.	.	8ff\J
.	.	.	2ee\
!	!	!LO:MO:null:mod=*clefC4	!
*	*	*clefC3	*
=22-	=22-	=22-	=22-
!LO:TX:t=P:problem:kreska pseudotaktowa	!	!	!
1d	.	4r	1dd
.	.	8d\L	.
.	.	8e\J	.
.	.	8f\L	.
.	.	8d\J	.
.	.	8g\L	.
!	!	!LO:TX:t=P:problem:kreska pseudotaktowa	!
.	.	8f\J	.
=23-	=23-	=23-	=23-
2A/	.	2e\	8dd\L
.	.	.	16cc\L
.	.	.	16b\JJ
!	!	!	!LO:SIC:v:s=8aL
.	.	.	8g/L
.	.	.	8b/J
2.A/	.	2A/	4.cc\
.	.	.	8b/
=24-	=24-	=24-	=24-
.	.	2A/	16a/LL
.	.	.	16b/
.	.	.	16cc/
.	.	.	16dd/JJ
4A/	.	.	16ee\LL
.	.	.	16ff\
.	.	.	16gg\
.	.	.	16ff\JJ
!LO:TX:t=P:problem:kreska pseudotaktowa	!	!	!
2A/	.	2A/	16gg\LL
.	.	.	16ff\
.	.	.	16gg\
.	.	.	16ff\JJ
.	.	.	8.ff\L
!	!	!	!LO:TX:t=P:problem:kreska pseudotaktowa
.	.	.	16ee\Jk
=25-	=25-	=25-	=25-
2c#X\	.	16A/LL	2ee\
.	.	16B/	.
!	!	!LO:TX:t=P:problem:# below	!
.	.	16c#X/	.
!	!	!LO:TX:t=P:problem:# below	!
.	.	16d/JJ	.
.	.	16e/LL	.
.	.	16A/	.
.	.	16B/	.
!	!	!LO:TX:t=P:problem:# below	!
.	.	16c#X/JJ	.
2c#\	.	16d\LL	2r
!	!	!LO:TX:a:t=P:problem:# above	!
.	.	16c#X\	.
.	.	16d\	.
!	!	!LO:TX:a:t=P:problem:# above	!
.	.	16c#X\JJ	.
.	.	16d\LL	.
!	!	!LO:TX:a:t=P:problem:# above	!
.	.	16c#X\	.
.	.	16B\	.
!	!	!LO:TX:t=P:problem:kreska pseudotaktowa	!
!	!	!LO:TX:a:t=P:problem:# above	!
.	.	16c#X\JJ	.
*	*	*custos:d	*
!	!	!LO:LB:g=original	!
=26-	=26-	=26-	=26-
!LO:TX:t=P:problem:kreska pseudotaktowa	!	!	!
1d	.	2d\	16dd\LL
.	.	.	16ee\
.	.	.	16ff\
.	.	.	16gg\JJ
.	.	.	16aa\LL
.	.	.	16dd\
.	.	.	16ee\
!	!	!	!LO:TX:a:t=P:problem:# above
.	.	.	16ff#X\JJ
.	.	2r	16gg\LL
!	!	!	!LO:TX:a:t=P:problem:# above
.	.	.	16ff#X\
.	.	.	16gg\
!	!	!	!LO:TX:a:t=P:problem:# above
.	.	.	16ff#X\JJ
.	.	.	16gg\LL
!	!	!	!LO:TX:a:t=P:problem:# above
.	.	.	16ff#X\
.	.	.	16ee\
!	!	!	!LO:TX:t=P:problem:kreska pseudotaktowa
!	!	!	!LO:TX:a:t=P:problem:# above
.	.	.	16ff#X\JJ
=27-	=27-	=27-	=27-
1Gny	.	16Gny/LL	2.gg\
.	.	16A/	.
.	.	16B/	.
.	.	16cny/JJ	.
.	.	16d/LL	.
.	.	16G/	.
.	.	16A/	.
.	.	16B/JJ	.
.	.	16c/LL	.
.	.	16B/	.
.	.	16c/	.
.	.	16B/JJ	.
.	.	16c/LL	4ffny\
.	.	16B/	.
.	.	16A/	.
!	!	!LO:TX:t=P:problem:kreska pseudotaktowa	!
.	.	16B/JJ	.
=28-	=28-	=28-	=28-
2.A/	.	4c/	4ee\
.	.	4B/	8ff\L
.	.	.	8gg\J
!	!	!	!LO:TX:t=P:problem:kreska pseudotaktowa
.	.	4A/	[2aa\
!LO:TX:t=P:problem:kreska pseudotaktowa	!	!	!
4G/	.	4G/	.
*	*	*clefF4	*
=29-	=29-	=29-	=29-
2F/	.	4.F\	4aa\]
!	!	!	!LO:TX:a:t=P:problem:♭ above
.	.	.	16bb-X\LL
.	.	.	16aa\
.	.	8D/	16gg\
.	.	.	16ff\JJ
2G/	.	4G\	2gg\
!	!	!LO:TX:t=P:problem:kreska pseudotaktowa	!
.	.	4A\	.
=30-	=30-	=30-	=30-
!LO:TX:t=P:problem:kreska pseudotaktowa	!	!	!
!	!	!LO:TX:a:t=P:problem:♭ above	!
1B-X	.	1B-X	8.gg\L
.	.	.	16aa\Jk
!	!	!	!LO:TX:a:t=P:problem:♭ above
.	.	.	16bb-X\LL
.	.	.	16aa\
.	.	.	16gg\
.	.	.	16ff\JJ
.	.	.	16ee\LL
.	.	.	16ff\
.	.	.	16gg\
.	.	.	16ff\JJ
.	.	.	16ee\LL
.	.	.	16dd\
!	!	!	!LO:SIC:v:s=16cc#
.	.	.	16cc\
.	.	.	16b\JJ
=31-	=31-	=31-	=31-
1A	.	2A\	16cc#X\LL
.	.	.	16dd\
.	.	.	16ee\
.	.	.	16dd\JJ
.	.	.	16ff\LL
.	.	.	16ee\
.	.	.	16gg\
.	.	.	16ff\JJ
.	.	4r	4.ee\
.	.	4AA/	.
.	.	.	8dd\
*	*	*	*custos:dd
!	!	!	!LO:LB:g=original
=32-	=32-	=32-	=32-
!LO:TX:t=P:problem:kreska pseudotaktowa	!	!	!
1D	.	16D\LL	2dd\
.	.	16E\	.
!	!	!LO:TX:a:t=P:problem:# above	!
.	.	16F#X\	.
.	.	16G\JJ	.
.	.	16A\LL	.
.	.	16D\	.
.	.	16E\	.
!	!	!LO:TX:a:t=P:problem:# above	!
.	.	16F#X\JJ	.
!	!	!	!LO:TX:t=P:problem:kreska pseudotaktowa
.	.	16G\LL	2r
.	.	16F#X\	.
.	.	16G\	.
!	!	!LO:TX:a:t=P:problem:# above	!
.	.	16F#X\	.
.	.	16G\	.
!	!	!LO:TX:a:t=P:problem:# above	!
.	.	16F#X\	.
.	.	16E\	.
!	!	!LO:TX:a:t=P:problem:# above	!
.	.	16F#X\JJ	.
*	*	*custos:G	*
!	!	!LO:LB:g=original	!
=33-	=33-	=33-	=33-
1G	.	2G\	16g/LL
.	.	.	16a/
.	.	.	16b/
.	.	.	16ccny/JJ
!	!	!	!LO:TX:t=P:problem:mixed beam
.	.	.	16dd/LL
.	.	.	16g/
.	.	.	16a/
.	.	.	16b\JJ
.	.	2r	16cc\LL
.	.	.	16b\
.	.	.	16cc\
.	.	.	16b\
.	.	.	16cc\
.	.	.	16b\
.	.	.	16a\
.	.	.	16b\JJ
=34-	=34-	=34-	=34-
!LO:TX:t=P:problem:kreska pseudotaktowa	!	!	!
1C	.	16C/LL	2.cc\
.	.	16D/	.
.	.	16E/	.
.	.	16Fny/JJ	.
.	.	16G\LL	.
.	.	16C\	.
.	.	16D\	.
.	.	16E\JJ	.
.	.	16F\LL	.
.	.	16E\	.
.	.	16F\	.
.	.	16E\JJ	.
.	.	16F\LL	4b-X/
.	.	16E\	.
.	.	16D\	.
!	!	!LO:TX:t=P:problem:kreska pseudotaktowa	!
.	.	16E\JJ	.
*custos:F	*	*	*
!LO:LB:g=original	!	!	!
=35-	=35-	=35-	=35-
2F/	.	4F\	4a/
*	*	*clefC4	*
.	.	8.f\L	8.aa\L
.	.	16e\Jk	16gg\Jk
2F/	.	8.d\L	8.ff\L
.	.	16c\Jk	16ee\Jk
.	.	8.Bny\L	8.dd\L
.	.	16A\Jk	16cc\Jk
*	*	*clefF4	*
=36-	=36-	=36-	=36-
2G/	.	8.G\L	8.bny/LL
.	.	16F\Jk	16a/JJk
.	.	8.E\L	8.g/LL
.	.	16D\Jk	16f/JJk
!LO:TX:t=P:problem:kreska pseudotaktowa	!	!	!
2A/	.	8.C/L	[4e/
.	.	16BB/Jk	.
.	.	8AA/L	16e/LL]
!	!	!	!LO:TX:a:t=P:problem:# above
.	.	.	16f#X/
!	!	!	!LO:TX:a:t=P:problem:# above
.	.	16GG/L	16g#X/
!	!	!LO:TX:t=P:problem:kreska pseudotaktowa	!
.	.	16FF/JJ	16a/JJ
*	*	*custos:EE	*custos:b
!	!	!LO:LB:g=original	!LO:LB:g=original
=37-	=37-	=37-	=37-
1E	.	4EE/	8b/L
.	.	.	8a/J
.	.	4DD/	8dd\L
.	.	.	8cc\J
.	.	2EE/	2b/
=38-	=38-	=38-	=38-
!LO:TX:t=P:problem:kreska pseudotaktowa	!	!	!
1A	.	1AA	1a
=39-	=39-	=39-	=39-
1A	.	4r	2r
.	.	4AA/	.
.	.	4AA/	4r
.	.	4AA/	4ee\
=40-	=40-	=40-	=40-
2cny\	.	2C/	4ee\
.	.	.	4ee\
!LO:TX:t=P:problem:kreska pseudotaktowa	!	!	!
2c\	.	8r	2gg\
.	.	8E\L	.
.	.	8E\	.
.	.	8E\J	.
=41-	=41-	=41-	=41-
1G	.	2G\	8r
.	.	.	8b/L
.	.	.	8b/
.	.	.	8b/J
!	!	!	!LO:TX:t=P:problem:kreska pseudotaktowa
.	.	8r	2dd\
.	.	8B\L	.
.	.	8B\	.
!	!	!LO:TX:t=P:problem:kreska pseudotaktowa	!
.	.	8B\J	.
=42-	=42-	=42-	=42-
!	!	!LO:TX:t=P:problem:mixed beam	!
1.d	.	8d\L	8r
.	.	8D/	8ff\L
.	.	8D/	8ff\
.	.	8D/J	8ff\J
.	.	2F\	2aa\
=43-	=43-	=43-	=43-
.	.	8r	8r
.	.	8F\L	8aa\L
.	.	8E\	8gg\
.	.	8D\J	8ff\J
2c\	.	4C/	4ee\
!	!	!LO:TX:t=P:problem:kreska pseudotaktowa	!LO:TX:t=P:problem:kreska pseudotaktowa
.	.	4BB/	4dd\
=44-	=44-	=44-	=44-
2A/	.	2AA/	16cc#X\
.	.	.	8aa\
.	.	.	16gg\
.	.	.	16ff\LL
.	.	.	16ee\
.	.	.	16dd\
!	!	!	!LO:TX:a:t=P:problem:# above
.	.	.	16cc#X\JJ
!	!	!	!LO:TX:t=P:problem:kreska pseudotaktowa
!LO:TX:t=P:problem:kreska pseudotaktowa	!	!	!
2Bny\	.	16r	2dd\
.	.	8G\	.
.	.	16F\	.
.	.	16E/LL	.
.	.	16D/	.
.	.	16C/	.
.	.	16BB/JJ	.
*	*	*custos:c	*custos:gg
!	!	!LO:LB:g=original	!LO:LB:g=original
=45-	=45-	=45-	=45-
1c	.	2C/	16r
.	.	.	8gg\
.	.	.	16ff\
.	.	.	16ee\LL
.	.	.	16dd\
.	.	.	16ccny\
.	.	.	16b\JJ
!	!	!LO:MO:mod=*null:null	!
*	*	*clefC4	*
!	!	!	!LO:TX:t=P:problem:kreska pseudotaktowa
.	.	16r	2cc\
.	.	8e\	.
.	.	16d\	.
.	.	16c\LL	.
.	.	16B\	.
.	.	16A\	.
!	!	!LO:TX:t=P:problem:kreska pseudotaktowa	!
.	.	16G\JJ	.
=46-	=46-	=46-	=46-
!LO:TX:t=P:problem:kreska pseudotaktowa	!	!	!
1A	.	2A/	16r
.	.	.	8ee\
.	.	.	16dd\
.	.	.	16cc/LL
.	.	.	16b/
.	.	.	16a/
!	!	!	!LO:TX:a:t=P:problem:# above
.	.	.	16g#X/JJ
.	.	16r	2a/
.	.	8c\	.
.	.	16B\	.
.	.	16A/LL	.
.	.	16G/	.
.	.	16F/	.
!	!	!LO:TX:t=P:problem:kreska pseudotaktowa	!
.	.	16E/JJ	.
=47-	=47-	=47-	=47-
2d\	.	2D/	16r
.	.	.	8aa\
.	.	.	16gg\
.	.	.	16ff\LL
.	.	.	16ee\
.	.	.	16dd\
.	.	.	16cc\JJ
2e\	.	2E/	4b/
.	.	.	8.b/L
.	.	.	16a/Jk
=48-	=48-	=48-	=48-
!	!	!	!LO:TX:a:t=2:mod=
2f\	.	2F/	0a
!LO:TX:t=P:problem:kreska pseudotaktowa	!	!	!
2A/	.	4r	.
.	.	4A/	.
=49-	=49-	=49-	=49-
2A/	.	2A/	.
!	!	!LO:TX:t=P:problem:kreska pseudotaktowa	!
2A/	.	2A/	.
=50-	=50-	=50-	=50-
2G/	.	4G/	0r
.	.	16D/LL	.
.	.	16E/	.
.	.	16F/	.
.	.	16G/JJ	.
2A/	.	8A\L	.
.	.	8B\	.
.	.	8c\	.
!	!	!LO:TX:t=P:problem:kreska pseudotaktowa	!
.	.	8A\J	.
=51-	=51-	=51-	=51-
1B-X	.	4.B-X\	.
.	.	8A/	.
*	*	*custos:b-	*
!	!	!LO:LB:g=original	!
.	.	8B-\L	.
.	.	8A\	.
.	.	8B-\	.
!	!	!LO:TX:t=P:problem:kreska pseudotaktowa	!
.	.	8c\J	.
=52-	=52-	=52-	=52-
!LO:TX:t=P:problem:kreska pseudotaktowa	!	!	!
1A	.	1A	4r
.	.	.	4ee\
.	.	.	4ee\
.	.	.	4ee\
*custos:D	*	*	*custos:dd
!LO:LB:g=original	!	!	!LO:LB:g=original
=53-	=53-	=53-	=53-
2D/	.	0r	4dd\
.	.	.	16a/LL
.	.	.	16b/
.	.	.	16cc/
.	.	.	16dd/JJ
2A/	.	.	8ee\L
.	.	.	8ff\
.	.	.	8gg\
!	!	!	!LO:TX:t=P:problem:kreska pseudotaktowa
.	.	.	8ee\J
=54-	=54-	=54-	=54-
!LO:TX:t=P:problem:kreska pseudotaktowa	!	!	!
1D	.	.	4.ff\
.	.	.	8ee\
.	.	.	8ff\L
.	.	.	8ee\
.	.	.	8ff\
.	.	.	8gg\J
=55-	=55-	=55-	=55-
1.A	.	8A\L	2ee\
.	.	8e\	.
.	.	8e\	.
.	.	8c\J	.
.	.	8c\L	4r
.	.	8A\J	.
!	!	!LO:TX:t=P:problem:kreska pseudotaktowa	!
.	.	4A/	8a/
.	.	.	8ee\
!	!	!LO:MO:mod=*null:null	!
*	*	*clefF4	*
=56-	=56-	=56-	=56-
.	.	8C/L	8ee\L
.	.	8AA/J	8cc\
.	.	4AA/	8cc\
.	.	.	8a\J
2A/	.	8A\L	8a\L
.	.	8c\	8ee\
.	.	8c\	8ee\
.	.	8A\J	8cc\J
=57-	=57-	=57-	=57-
2d\	.	2d\	1a
2c#X\	.	2c#X\	.
=58-	=58-	=58-	=58-
!LO:TX:t=P:problem:kreska pseudotaktowa	!	!	!
1d	.	4d\	2r
.	.	8D\L	.
.	.	8E\J	.
.	.	8F\L	4r
.	.	8D\	.
.	.	8F\	8a/L
!	!	!LO:TX:t=P:problem:kreska pseudotaktowa	!LO:TX:t=P:problem:kreska pseudotaktowa
.	.	8G\J	8b/J
!	!	!LO:MO:mod=*null:null	!
*	*	*clefC4	*custos:cc
!	!	!	!LO:LB:g=original
=59-	=59-	=59-	=59-
2A/	.	8A/L	8cc\L
.	.	8F/	8a\
.	.	8A/	8cc\
.	.	8Bny/J	8dd\J
*	*	*custos:c	*
!	!	!LO:LB:g=original	!
1cny\	.	8cny\L	8ee\L
.	.	8A\	16cc\L
.	.	.	16dd\J
.	.	8c\	8ee\
!	!	!LO:TX:t=P:problem:kreska pseudotaktowa	!LO:TX:t=P:problem:kreska pseudotaktowa
.	.	8d\J	8ff\J
=60-	=60-	=60-	=60-
.	.	8e\L	8gg\L
.	.	8A\J	16aa\L
.	.	.	16gg\J
.	.	8d\L	8ff\
.	.	8c\J	8ee\J
2Bny\	.	8B\L	8dd\L
.	.	8G\J	16gg\L
.	.	.	16ff\J
.	.	8c\L	8ee\
!	!	!LO:TX:t=P:problem:kreska pseudotaktowa	!LO:TX:t=P:problem:kreska pseudotaktowa
.	.	8B\J	8dd\J
=61-	=61-	=61-	=61-
2A/	.	8A/L	8cc\L
.	.	8F/J	16ff\L
.	.	.	16ee\J
.	.	8B-X/L	8dd\
.	.	8A/J	8cc\J
2G/	.	8G/L	8b\L
.	.	8E/J	16ee\L
.	.	.	16dd\J
.	.	8A/L	8cc\
!	!	!LO:TX:t=P:problem:kreska pseudotaktowa	!LO:TX:t=P:problem:kreska pseudotaktowa
.	.	8G/J	8b\J
*	*	*	*custos:a
!	!	!	!LO:LB:g=original
=62-	=62-	=62-	=62-
!LO:TX:t=P:problem:kreska pseudotaktowa	!	!	!
1F	.	4.F/	2a/
.	.	8D/	.
.	.	4G/	2r
.	.	4F/	.
=63-	=63-	=63-	=63-
2E/	.	1E	4r
.	.	.	4ee\
2e\	.	.	4ee\
.	.	.	4ee\
!LO:MO:mod=*null:null	!	!	!
*clefC3	*	*	*
=64-	=64-	=64-	=64-
!LO:MO:null:mod=*clefC4	!	!	!LO:TX:t=P:problem:mixed beam
*	*	*	*
1a	.	4r	8ff\L
.	.	.	8a\
.	.	4A/	8a\
.	.	.	8a\J
.	.	4A/	8.cc\L
.	.	.	16dd\Jk
!	!	!LO:TX:t=P:problem:kreska pseudotaktowa	!
.	.	4A/	16ee\LL
.	.	.	16ff\
.	.	.	16gg\
!	!	!	!LO:TX:t=P:problem:kreska pseudotaktowa
.	.	.	16ee\JJ
=65-	=65-	=65-	=65-
2f\	.	8d\L	2ff\
.	.	8D/	.
.	.	8D/	.
.	.	8D/J	.
1a\	.	8A/L	2ff\
.	.	16D/L	.
.	.	16E/	.
.	.	16F/	.
.	.	16G/	.
.	.	16A/	.
.	.	16Bny/JJ	.
*	*	*custos:c	*
!	!	!LO:LB:g=original	!
=66-	=66-	=66-	=66-
.	.	4c\	2ee\
.	.	8B\L	.
.	.	8A\J	.
2g\	.	2G/	8r
.	.	.	8gg\L
.	.	.	8ff\
.	.	.	8ee\J
!	!	!LO:MO:mod=*null:null	!
*	*	*clefF4	*
=67-	=67-	=67-	=67-
2f\	.	8r	2dd\
.	.	16B-X\LL	.
.	.	16A\JJ	.
.	.	8G\L	.
.	.	8F\J	.
!LO:TX:t=P:problem:kreska pseudotaktowa	!	!	!
2e\	.	8E\L	8r
.	.	16A\L	16ff\LL
.	.	16G\JJ	16ee\J
.	.	8F\L	8dd\
!	!	!LO:TX:t=P:problem:kreska pseudotaktowa	!LO:TX:t=P:problem:kreska pseudotaktowa
.	.	8E\J	8cc\J
=68-	=68-	=68-	=68-
1d	.	8D\L	8b\L
.	.	8E\	8cc\
.	.	8F\	8dd\
.	.	8D\J	8cc\J
.	.	8D/L	8b/
.	.	8C/J	4cc\
!	!	!LO:TX:t=P:problem:kreska pseudotaktowa	!
.	.	4D/	.
.	.	.	8b/
=69-	=69-	=69-	=69-
!LO:MO:null:mod=*clefF4	!	!	!
*	*	*	*
1c	.	2C/	8cc\L
.	.	.	16gg\L
.	.	.	16ff\JJ
.	.	.	16ee\LL
.	.	.	16dd\
.	.	.	16cc\
.	.	.	16b\JJ
.	.	16r	2cc\
.	.	8c\	.
.	.	16Bny\	.
.	.	16A\LL	.
.	.	16G\	.
.	.	16F\	.
!	!	!LO:TX:t=P:problem:kreska pseudotaktowa	!
.	.	16E\JJ	.
!LO:MO:mod=*null:null	!	!	!
*clefC4	*	*	*
=70-	=70-	=70-	=70-
1F	.	2F\	8r
.	.	.	16cc/LL
.	.	.	16b/
.	.	.	16a/
.	.	.	16gny/
.	.	.	16fny/
.	.	.	16e/JJ
.	.	4r	4.f/
.	.	4F\	.
!	!	!	!LO:TX:t=P:problem:kreska pseudotaktowa
.	.	.	8aa\
*	*	*custos:F	*
!	!	!LO:LB:g=original	!
=71-	=71-	=71-	=71-
2F/	.	2F\	2aa\
!LO:TX:t=P:problem:kreska pseudotaktowa	!	!LO:TX:t=P:problem:kreska pseudotaktowa	!
2E/	.	2E\	2gg\
*	*	*	*custos:aa
!	!	!	!LO:LB:g=original
=72-	=72-	=72-	=72-
1F	.	8F\L	2.aa\
.	.	8G\	.
.	.	8A\	.
.	.	8G\J	.
.	.	8F\L	.
.	.	16G\L	.
.	.	16F\JJ	.
.	.	8.E\L	8.gg\L
!	!	!LO:TX:t=P:problem:kreska pseudotaktowa	!LO:TX:t=P:problem:kreska pseudotaktowa
.	.	16D\Jk	16ff\Jk
*custos:C	*	*	*
!LO:LB:g=original	!	!	!
=73-	=73-	=73-	=73-
2C/	.	2C/	8ee\L
.	.	.	8ff\
.	.	.	8gg\
.	.	.	8ff\J
*	*	*clefC4	*
!LO:TX:t=P:problem:kreska pseudotaktowa	!	!	!
2c\	.	4r	8ee\L
.	.	.	16gg\L
.	.	.	16ff\JJ
!	!	!LO:TX:t=P:problem:kreska pseudotaktowa	!
.	.	4c\	8.ee\L
.	.	.	16dd\Jk
=74-	=74-	=74-	=74-
2c\	.	2c\	2ee\
2B\	.	2B\	2dd\
=75-	=75-	=75-	=75-
!LO:TX:t=P:problem:kreska pseudotaktowa	!	!	!
1c	.	8c\L	8ee\L
.	.	8d\	8ff\
.	.	8e\	8gg\
.	.	8d\J	8ff\J
.	.	8c\L	8ee\L
.	.	16d\L	16ff\L
.	.	16c\JJ	16ee\J
.	.	8.B\L	8.dd\
!	!	!LO:TX:t=P:problem:kreska pseudotaktowa	!LO:TX:t=P:problem:kreska pseudotaktowa
.	.	16A\Jk	16cc\Jk
=76-	=76-	=76-	=76-
2G/	.	2G/	8b\L
.	.	.	8cc\
.	.	.	8dd\
.	.	.	8cc\J
*	*	*clefF4	*
2G/	.	4r	8b/L
.	.	.	16cc/L
.	.	.	16b/J
.	.	4G\	8.a/
.	.	.	16g/Jk
*	*	*custos:G	*custos:b
!	!	!LO:LB:g=original	!LO:PB:g=original
=77-	=77-	=77-	=77-
2G/	.	2G\	2b/
!LO:TX:t=P:problem:kreska pseudotaktowa	!	!	!LO:TX:t=P:problem:kreska pseudotaktowa
2F#X/	.	2F#X\	2a/
=78-	=78-	=78-	=78-
1G	.	8G\L	8b\L
.	.	8A\	8cc\
!	!	!LO:N:acc=#	!
!	!	!LO:TX:a:t=P:problem:# above	!
.	.	8Bn\	8dd\
.	.	8A\J	8cc\J
.	.	8G\L	8b\L
.	.	16A\L	16cc\L
.	.	16G\JJ	16b\JJ
.	.	8.Fny\L	8.a/L
!	!	!LO:TX:t=P:problem:kreska pseudotaktowa	!LO:TX:t=P:problem:kreska pseudotaktowa
.	.	16E\Jk	16g/Jk
=79-	=79-	=79-	=79-
1D	.	4D/	8f#X/L
.	.	.	8g/
.	.	4C/	8a/
.	.	.	8b/J
.	.	2D/	4.a/
!	!	!	!LO:TX:t=P:problem:kreska pseudotaktowa
.	.	.	8g/
=80-	=80-	=80-	=80-
1G	.	4GG/	2g/
.	.	4G\	.
.	.	4G\	4r
!	!	!LO:TX:t=P:problem:kreska pseudotaktowa	!
.	.	4G\	4b/
=81-	=81-	=81-	=81-
2G/	.	2G\	4b/
.	.	.	4b/
!LO:TX:t=P:problem:kreska pseudotaktowa	!	!	!LO:TX:t=P:problem:kreska pseudotaktowa
2G/	.	8r	2a/
.	.	16G\LL	.
.	.	16A\JJ	.
.	.	16B\LL	.
.	.	16G\JJ	.
.	.	16c\LL	.
!	!	!LO:TX:t=P:problem:kreska pseudotaktowa	!
.	.	16B\JJ	.
*	*	*custos:A	*
!	!	!LO:PB:g=original	!
=82-	=82-	=82-	=82-
2A/	.	2A\	8r
.	.	.	16a/LL
.	.	.	16b/
.	.	.	16cc/
.	.	.	16a/JJ
.	.	.	16dd\LL
.	.	.	16cc\JJ
!	!	!	!LO:TX:t=P:problem:kreska pseudotaktowa
2G/	.	8r	2b\
.	.	16E\LL	.
.	.	16F\JJ	.
.	.	16G\LL	.
.	.	16E\JJ	.
.	.	16A\LL	.
!	!	!LO:TX:t=P:problem:kreska pseudotaktowa	!
.	.	16G\JJ	.
=83-	=83-	=83-	=83-
1F	.	2.F\	4r
.	.	.	8a/L
.	.	.	8b/J
*	*	*	*custos:cc
!	!	!	!LO:LB:g=original
.	.	.	8cc\L
.	.	.	8a\
.	.	4D/	8dd\
.	.	.	8cc\J
=84-	=84-	=84-	=84-
!	!	!LO:TX:t=P:problem:kreska pseudotaktowa	!
1E	.	1E	4b/
.	.	.	16e/LL
!	!	!	!LO:TX:a:t=P:problem:# above
.	.	.	16f#X/
!	!	!	!LO:TX:a:t=P:problem:# above
.	.	.	16g#X/
.	.	.	16a/JJ
.	.	.	8b/L
.	.	.	8e/J
.	.	.	8ee\L
!	!	!	!LO:TX:t=P:problem:kreska pseudotaktowa
.	.	.	8dd\J
=85-	=85-	=85-	=85-
1A	.	4A\	2cc\
.	.	16AA/LL	.
.	.	16BB/	.
.	.	16C/	.
.	.	16D/JJ	.
.	.	8E\	4r
!	!	!LO:TX:t=P:problem:mixed beam	!
.	.	8AA/L	.
.	.	8A\	4ee\
!	!	!LO:TX:t=P:problem:kreska pseudotaktowa	!
.	.	8G\J	.
=86-	=86-	=86-	=86-
2d\	.	4F\	2ff\
.	.	16D\LL	.
.	.	16E\	.
.	.	16F\	.
.	.	16G\JJ	.
!	!	!	!LO:TX:t=P:problem:kreska pseudotaktowa
2c#X\	.	8A\L	[2ee\
.	.	8B\	.
!	!	!LO:TX:a:t=P:problem:# above	!
.	.	8c#X\	.
.	.	8A\J	.
*	*	*custos:d	*
!	!	!LO:LB:g=original	!
=87-	=87-	=87-	=87-
2d\	.	2d\	8ee\]
.	.	.	8ff\
.	.	.	8ee\
.	.	.	8dd\J
!LO:TX:t=P:problem:kreska pseudotaktowa	!	!	!
!LO:MO:null:mod=*clefC4	!	!	!
*	*	*	*
2g\	.	8r	4dd\
.	.	8A\L	.
!	!	!	!LO:MO:mod=[4gg
.	.	8G\	4.gg\
!	!	!LO:TX:t=P:problem:kreska pseudotaktowa	!
.	.	8F\J	.
=88-	=88-	=88-	=88-
!	!	!	!LO:MO:mod=8gg]L
1e	.	8E\L	.
!	!	!	!LO:MO:null:mod=8ffJ
.	.	8D\J	8ff\
.	.	8G\L	8ee\L
.	.	8F\J	8dd\J
.	.	8E\L	8cc#X\
.	.	8D\J	4dd\
!	!	!LO:TX:t=P:problem:kreska pseudotaktowa	!
.	.	4E\	.
!	!	!	!LO:TX:a:t=P:problem:# above
.	.	.	8cc#X\
=89-	=89-	=89-	=89-
2d\	.	2D/	2dd\
!	!	!LO:MO:mod=*null:null	!
*	*	*clefC4	*
2d\	.	4r	4r
.	.	4d\	4ff\
=90-	=90-	=90-	=90-
2d\	.	2d\	2ff\
!	!	!LO:TX:t=P:problem:kreska pseudotaktowa	!
2d\	.	2d\	2ff\
=91-	=91-	=91-	=91-
2.cny\	.	8cny\L	8ee\L
.	.	8d\	8ff\
.	.	8e\	8gg\
!	!	!	!LO:TX:t=P:problem:kreska pseudotaktowa
.	.	8d\J	8ff\J
*	*	*	*custos:ee
!	!	!	!LO:LB:g=original
.	.	4c\	4ee\
!LO:TX:t=P:problem:kreska pseudotaktowa	!	!LO:TX:t=P:problem:kreska pseudotaktowa	!
4B\	.	4B\	4dd\
*custos:A	*	*	*
!LO:LB:g=original	!	!	!
=92-	=92-	=92-	=92-
!LO:MO:null:mod=*clefF4	!	!	!
*	*	*	*
2A/	.	8.A\L	2ccny\
.	.	16B\Jk	.
.	.	8c\L	.
.	.	16B\L	.
.	.	16A\JJ	.
!	!	!LO:MO:mod=*null:null	!
*	*	*clefF4	*
2G/	.	8.G\L	2b/
.	.	16F\Jk	.
*	*	*custos:E	*
!	!	!LO:LB:g=original	!
.	.	16E\LL	.
.	.	16D\	.
.	.	16C\	.
!	!	!LO:TX:t=P:problem:kreska pseudotaktowa	!
.	.	16BB\JJ	.
=93-	=93-	=93-	=93-
2A/	.	4AA/	8.cc\L
.	.	.	16b\Jk
.	.	4A\	16a/LL
.	.	.	16gny/
.	.	.	16fny/
.	.	.	16e/JJ
!	!	!	!LO:TX:t=P:problem:mixed beam
2B-X\	.	4.B-X\	8d/L
.	.	.	8dd\
.	.	.	8dd\
!	!	!	!LO:TX:t=P:problem:kreska pseudotaktowa
.	.	8A\	8dd\J
=94-	=94-	=94-	=94-
1G	-	1G	4.b-X/
.	.	.	8a/
.	.	.	8b-X/L
.	.	.	8a/
.	.	.	8b-/
.	.	.	8cc/J
=95-	=95-	=95-	=95-
!LO:TX:t=P:problem:kreska pseudotaktowa	!	!	!
1F	.	1F	2a/
.	.	.	4r
.	.	.	4ee\
!	!	!LO:MO:mod=*null:null	!
*	*	*clefC4	*
=96-	=96-	=96-	=96-
2D/	.	4r	2ff\
.	.	4d\	.
2d\	.	4d\	2ff\
.	.	4d\	.
=97-	=97-	=97-	=97-
2c\	.	8c\L	8ee\L
.	.	8d\	8ff\
.	.	8e\	8gg\
.	.	8d\J	8ff\J
4A/	.	4c\	4ee\
!LO:TX:t=P:problem:kreska pseudotaktowa	!	!LO:TX:t=P:problem:kreska pseudotaktowa	!
4Bny\	.	4Bny\	4dd\
=98-	=98-	=98-	=98-
4c\	.	4c\	2cc\
4d\	.	16A\LL	.
.	.	16B\	.
.	.	16c\	.
.	.	16d\JJ	.
2e\	.	4e\	4.bny/
!	!	!LO:TX:t=P:problem:kreska pseudotaktowa	!
.	.	4E/	.
.	.	.	8a/
=99-	=99-	=99-	=99-
2A/	.	2A/	4.aa\
.	.	.	8gg\
!LO:TX:t=P:problem:kreska pseudotaktowa	!	!	!
2d\	.	8d\L	8ff\L
.	.	8c\	8ee\
.	.	8B\	8dd\
.	.	8A\J	8cc\J
*	*	*custos:E	*custos:b
!	!	!LO:LB:g=original	!LO:LB:g=original
=100-	=100-	=100-	=100-
1e	.	1E	8b/L
.	.	.	8a/
.	.	.	8dd/
.	.	.	8cc/J
.	.	.	2b/
!	!	!LO:MO:mod=*null:null	!
*	*	*clefF4	*
=101-	=101-	=101-	=101-
0D	.	2r	8a/L
.	.	.	8dd/J
!	!	!	!LO:TX:t=P:problem:# below
.	.	.	8ff#X\L
.	.	.	8aa\J
!	!	!	!LO:TX:t=P:problem:kreska pseudotaktowa
.	.	8AA/L	2r
.	.	8D/J	.
!	!	!LO:TX:a:t=P:problem:# above	!
.	.	8F#X\L	.
.	.	8A\J	.
=102-	=102-	=102-	=102-
.	.	2r	16dd\LL
.	.	.	16ee\
!	!	!	!LO:TX:a:t=P:problem:# above
.	.	.	16ff#X\
.	.	.	16gg\JJ
.	.	.	8aa\L
.	.	.	8dd\J
.	.	16D\LL	2r
.	.	16E\	.
!	!	!LO:TX:a:t=P:problem:# above	!
.	.	16F#X\	.
.	.	16G\JJ	.
.	.	8A\L	.
.	.	8D\J	.
!	!	!LO:MO:mod=*null:null	!
*	*	*clefC4	*
=103-	=103-	=103-	=103-
0A	.	2r	8a\L
!	!	!	!LO:TX:a:t=P:problem:# above
.	.	.	8cc#X\
.	.	.	8ee\
.	.	.	8a\J
!	!	!	!LO:TX:t=P:problem:kreska pseudotaktowa
.	.	8A\L	2r
!	!	!LO:TX:a:t=P:problem:# above	!
.	.	8c#X\	.
.	.	8e\	.
!	!	!LO:TX:t=P:problem:kreska pseudotaktowa	!
.	.	8A\J	.
=104-	=104-	=104-	=104-
.	.	2r	16a/LL
.	.	.	16b/
!	!	!	!LO:TX:a:t=P:problem:# above
.	.	.	16cc#X/
.	.	.	16dd/JJ
.	.	.	8ee\L
.	.	.	8a\J
!	!	!	!LO:TX:t=P:problem:kreska pseudotaktowa
.	.	16A\LL	2r
.	.	16B\	.
!	!	!LO:TX:a:t=P:problem:# above	!
.	.	16c#X\	.
.	.	16d\JJ	.
.	.	8e\L	.
.	.	8A\J	.
!	!	!LO:MO:mod=*null:null	!
*	*	*clefF4	*
=105-	=105-	=105-	=105-
0E	.	2r	8ee\L
!	!	!	!LO:TX:a:t=P:problem:# above
.	.	.	8gg#X\
.	.	.	8bbny\
.	.	.	8ee\J
!	!	!	!LO:TX:t=P:problem:kreska pseudotaktowa
.	.	8E\L	2r
.	.	8G#X\	.
.	.	8B\	.
!	!	!LO:TX:t=P:problem:kreska pseudotaktowa	!
.	.	8E\J	.
=106-	=106-	=106-	=106-
.	.	2r	16ee\LL
!	!	!	!LO:TX:a:t=P:problem:# above
.	.	.	16ff#X\
!	!	!	!LO:TX:a:t=P:problem:# above
.	.	.	16gg#X\
.	.	.	16aa\JJ
.	.	.	8bb\L
.	.	.	8ee\J
!	!	!	!LO:TX:t=P:problem:kreska pseudotaktowa
.	.	16E\LL	2r
!	!	!LO:TX:a:t=P:problem:# above	!
.	.	16F#X\	.
!	!	!LO:TX:a:t=P:problem:# above	!
.	.	16G#X\	.
.	.	16A\JJ	.
.	.	8B\L	.
!	!	!LO:TX:t=P:problem:kreska pseudotaktowa	!
.	.	8E\J	.
*	*	*custos:AA	*
!	!	!LO:LB:g=original	!
=107-	=107-	=107-	=107-
2A/	.	2r	8a\L
!	!	!	!LO:TX:a:t=P:problem:# above
.	.	.	8cc#X\
.	.	.	8ee\
.	.	.	8a\J
!LO:TX:t=P:problem:kreska pseudotaktowa	!	!	!
2A/	.	8AA/L	2r
!	!	!LO:TX:a:t=P:problem:# above	!
.	.	8C#X/	.
.	.	8E/	.
!	!	!LO:TX:t=P:problem:kreska pseudotaktowa	!
.	.	8AA/J	.
*	*	*	*custos:ff
!	!	!	!LO:LB:g=original
=108-	=108-	=108-	=108-
2G/	.	2r	8r
.	.	.	16ffny\LL
.	.	.	16ee\J
.	.	.	8dd\
.	.	.	8ccny\J
!	!	!	!LO:TX:t=P:problem:kreska pseudotaktowa
2F/	.	8r	2dd\
.	.	16Gny\LL	.
.	.	16Fny\J	.
.	.	8E\	.
!	!	!LO:TX:t=P:problem:kreska pseudotaktowa	!
.	.	8D\J	.
=109-	=109-	=109-	=109-
2E/	.	2E\	8r
.	.	.	16dd\LL
.	.	.	16cc\J
.	.	.	8b\
.	.	.	8a\J
!	!	!	!LO:TX:t=P:problem:kreska pseudotaktowa
2A/	.	8r	2cc\
.	.	16BB/LL	.
.	.	16AA/J	.
.	.	8GG/	.
!	!	!LO:TX:t=P:problem:kreska pseudotaktowa	!
.	.	8FF/J	.
=110-	=110-	=110-	=110-
2G/	.	2GG/	8r
.	.	.	16cc\LL
.	.	.	16b\JJ
.	.	.	8a/L
.	.	.	8g/J
!	!	!	!LO:TX:t=P:problem:kreska pseudotaktowa
2F/	.	8r	2a/
.	.	16GG/LL	.
.	.	16FF/J	.
.	.	8EE/	.
.	.	8DD/J	.
=111-	=111-	=111-	=111-
0E	.	2EE/	8r
.	.	.	8ee\L
.	.	.	8b\
.	.	.	8cc\J
!	!	!	!LO:TX:t=P:problem:kreska pseudotaktowa
.	.	8r	2b/
.	.	8E/L	.
.	.	8BB/	.
!	!	!LO:TX:t=P:problem:kreska pseudotaktowa	!
.	.	8Cny/J	.
*custos:e	*	*	*
!LO:LB:g=original	!	!	!
=112-	=112-	=112-	=112-
.	.	2BB/	16r
.	.	.	16ee\LL
.	.	.	16dd\
.	.	.	16cc\JJ
.	.	.	8b/L
.	.	.	8a/J
!	!	!	!LO:TX:t=P:problem:kreska pseudotaktowa
.	.	16r	2b/
.	.	16E\LL	.
.	.	16D\	.
.	.	16C\JJ	.
.	.	8BB/L	.
!	!	!LO:TX:t=P:problem:kreska pseudotaktowa	!
.	.	8AA/J	.
=113-	=113-	=113-	=113-
1e	.	2E\	8r
.	.	.	16ee\LL
!	!	!	!LO:TX:a:t=P:problem:# above
.	.	.	16ff#X\JJ
.	.	.	8ggny\L
!	!	!	!LO:TX:a:t=P:problem:# above
.	.	.	8ff#X\J
*	*	*custos:F	*
!	!	!LO:LB:g=original	!
.	.	2r	8ee\L
.	.	.	8dd\
.	.	.	8cc\
!	!	!	!LO:TX:t=P:problem:kreska pseudotaktowa
.	.	.	8b\J
*	*	*	*custos:a
!	!	!	!LO:LB:g=original
=114-	=114-	=114-	=114-
!LO:TX:t=P:problem:kreska pseudotaktowa	!	!	!
1f	.	8r	8a/L
.	.	16F\LL	16a/L
.	.	16G\J	16b/JJ
.	.	8A\	8cc\L
.	.	8G\J	8b\J
.	.	8F\L	8a/L
.	.	8E\	8g/
.	.	8D\	8f/
!	!	!LO:TX:t=P:problem:kreska pseudotaktowa	!LO:TX:t=P:problem:kreska pseudotaktowa
.	.	8C\J	8e/J
=115-	=115-	=115-	=115-
!	!	!LO:TX:t=P:problem:mixed beam	!LO:TX:t=P:problem:mixed beam
0B-X	.	8BB-X/L	8d/L
.	.	16B-X\L	16dd\L
!	!	!	!LO:TX:a:t=P:problem:♭ above
.	.	16cny\JJ	16ee-X\JJ
.	.	8d\L	8ffny\L
!	!	!	!LO:TX:a:t=P:problem:♭ above
.	.	8c\J	8ee-X\
.	.	8B-X\L	8dd\
.	.	8A\	8cc\J
.	.	8G\	8b-X/L
!	!	!	!LO:TX:t=P:problem:kreska pseudotaktowa
.	.	8F\J	8a/J
=116-	=116-	=116-	=116-
!	!	!	!LO:TX:t=P:problem:mixed beam
.	.	2BB-X/	8b-X/L
.	.	.	16gg\L
.	.	.	16aa\JJ
!	!	!	!
.	.	.	8bb-X\L
.	.	.	8aa\J
.	.	2r	8gg\L
.	.	.	8ff\
!	!	!	!LO:TX:a:t=P:problem:♭ above
.	.	.	8ee-X\
!	!	!	!LO:TX:t=P:problem:kreska pseudotaktowa
.	.	.	8dd\J
!	!	!LO:MO:mod=*null:null	!
*	*	*clefC4	*
=117-	=117-	=117-	=117-
!LO:TX:t=P:problem:kreska pseudotaktowa	!	!	!
0c	.	8r	8cc\L
.	.	16c\LL	16eeny\L
.	.	16d\J	16ff\JJ
.	.	8e\	8gg\L
.	.	8d\J	8ff\J
.	.	8c\L	8ee\L
.	.	8Bny\	8dd\
.	.	8c\	8ee\
!	!	!LO:TX:t=P:problem:kreska pseudotaktowa	!
.	.	8d\J	8ff\J
=118-	=118-	=118-	=118-
.	.	8.e\L	8.gg\L
.	.	16f\Jk	16aa\Jk
.	.	8.e\L	8.gg\L
.	.	16f\Jk	16aa\Jk
*	*	*	*custos:gg
!	!	!	!LO:LB:g=original
.	.	8e\	8gg\L
.	.	4f\	8aa\J
.	.	.	4gg\
!	!	!LO:TX:t=P:problem:kreska pseudotaktowa	!
.	.	8e\	.
*	*	*custos:f	*
!	!	!LO:LB:g=original	!
=119-	=119-	=119-	=119-
!	!	!	!LO:TX:t=P:problem:kreska pseudotaktowa
2F/	.	2f\	1ff
2F/	.	4r	.
.	.	4F/	.
=120-	=120-	=120-	=120-
2G/	.	8G/L	0r
.	.	16E/L	.
.	.	16F/	.
.	.	16G/	.
.	.	16A/	.
.	.	16B-X/	.
.	.	16G/JJ	.
2A/	.	8A/L	.
.	.	16F/L	.
.	.	16G/	.
.	.	16A/	.
!	!	!LO:TX:t=P:problem:♭ below	!
.	.	16B-X/	.
.	.	16c/	.
!	!	!LO:TX:t=P:problem:kreska pseudotaktowa	!
.	.	16A/JJ	.
=121-	=121-	=121-	=121-
!	!	!LO:TX:t=P:problem:♭ below	!
1B-X	.	4.B-X\	.
.	.	8A/	.
!	!	!LO:TX:a:t=P:problem:♭ above	!
.	.	8B-X\L	.
.	.	8A\	.
.	.	8B-\	.
.	.	8c\J	.
=122-	=122-	=122-	=122-
!LO:TX:t=P:problem:kreska pseudotaktowa	!	!LO:TX:t=P:problem:kreska pseudotaktowa	!
1A	.	1A	2r
.	.	.	4r
!	!	!	!LO:TX:t=P:problem:kreska pseudotaktowa
.	.	.	4cc\
=123-	=123-	=123-	=123-
2f\	.	0r	8dd\L
.	.	.	16bny\L
.	.	.	16cc\
.	.	.	16dd\
.	.	.	16ee\
.	.	.	16ff\
.	.	.	16dd\JJ
2e\	.	.	8ee\L
.	.	.	16cc\L
.	.	.	16dd\
.	.	.	16ee\
.	.	.	16ff\
.	.	.	16gg\
!	!	!	!LO:TX:t=P:problem:kreska pseudotaktowa
.	.	.	16ee\JJ
=124-	=124-	=124-	=124-
!LO:TX:t=P:problem:kreska pseudotaktowa	!	!	!
1d	.	.	4.ff\
.	.	.	8ee\
.	.	.	8ff\L
.	.	.	8ee\
.	.	.	8ff\
.	.	.	8gg\J
=125-	=125-	=125-	=125-
1c	.	2r	2ee\
.	.	4r	4r
!	!	!LO:TX:t=P:problem:kreska pseudotaktowa	!
.	.	4c\	4ee\
=126-	=126-	=126-	=126-
2Bny\	.	2Bny\	8dd\L
.	.	.	16b\L
.	.	.	16cc\JJ
.	.	.	16dd\LL
.	.	.	16ee\
.	.	.	16ff\
.	.	.	16dd\JJ
2c\	.	8c\L	2cc\
.	.	16A\L	.
.	.	16B\	.
.	.	16c\	.
.	.	16d\	.
.	.	16e\	.
!	!	!LO:TX:t=P:problem:kreska pseudotaktowa	!
.	.	16c\JJ	.
=127-	=127-	=127-	=127-
2d\	.	2d\	8b\L
.	.	.	16g\L
.	.	.	16a\
.	.	.	16b\
.	.	.	16cc\
.	.	.	16dd\
.	.	.	16cc\JJ
!	!	!	!LO:TX:t=P:problem:kreska pseudotaktowa
2e\	.	8e\L	2b/
.	.	16c\L	.
.	.	16d\	.
.	.	16e\	.
.	.	16f\	.
.	.	16g\	.
.	.	16e\JJ	.
*	*	*custos:f	*
!	!	!LO:LB:g=original	!
=128-	=128-	=128-	=128-
2f\	.	2f\	2a/
!LO:TX:t=P:problem:kreska pseudotaktowa	!	!	!
2F/	.	4r	4r
!	!	!LO:TX:t=P:problem:kreska pseudotaktowa	!
!	!	!	!LO:TX:t=P:problem:kreska pseudotaktowa
.	.	4F/	4aa\
=129-	=129-	=129-	=129-
2G/	-	8G/L	2bb-X\
.	.	16E/L	.
.	.	16F/	.
.	.	16G/	.
.	.	16A/	.
!	!	!LO:TX:t=P:problem:♭ below	!
.	.	16B-X/	.
.	.	16G/JJ	.
!	!	!	!LO:TX:t=P:problem:kreska pseudotaktowa
2A/	.	8A/L	2aa\
.	.	16F/L	.
.	.	16G/	.
.	.	16A/	.
!	!	!LO:TX:t=P:problem:♭ below	!
.	.	16B-X/	.
.	.	16c/	.
.	.	16A/JJ	.
=130-	=130-	=130-	=130-
2B-X\	.	4.B-X\	8ff\L
.	.	.	16dd\L
.	.	.	16ee\
.	.	.	16ff\
.	.	.	16gg\
.	.	8A/	16aa\
.	.	.	16ff\JJ
!LO:TX:t=P:problem:kreska pseudotaktowa	!	!	!
!	!	!LO:TX:a:t=P:problem:♭ above	!
2B-\	.	8B-X\L	8gg\L
.	.	8A\	16ee\L
.	.	.	16ff\
.	.	8B-\	16gg\
.	.	.	16aa\
!	!	!LO:TX:t=P:problem:kreska pseudotaktowa	!
.	.	8c\J	16bb-X\
!	!	!	!LO:TX:t=P:problem:kreska pseudotaktowa
.	.	.	16gg\JJ
=131-	=131-	=131-	=131-
1A	.	2A/	2aa\
.	.	8r	8r
.	.	8A/L	8cc\L
.	.	8A/	8cc\
!	!	!LO:TX:t=P:problem:kreska pseudotaktowa	!LO:TX:t=P:problem:kreska pseudotaktowa
.	.	8A/J	8cc\J
=132-	=132-	=132-	=132-
2G/	n	8.G/L	8.b-X/L
.	.	16A/Jk	16cc/Jk
.	.	8.G/L	8.b-/L
.	.	16A/Jk	16cc/Jk
2F/	.	8.F/L	8.a/L
.	.	16G/Jk	16b-X/Jk
.	.	8.F/L	8.a/L
!	!	!	!LO:TX:t=P:problem:kreska pseudotaktowa
.	.	16G/Jk	16b-/Jk
*custos:E	*	*custos:E	*custos:g
!LO:LB:g=original	!	!LO:LB:g=original	!LO:LB:g=original
=133-	=133-	=133-	=133-
!	!	!LO:TX:t=P:problem:mixed beam	!LO:TX:t=P:problem:mixed beam
1E	.	8E/L	8g/L
.	.	8e\	8gg\
.	.	8e\	8gg\
.	.	8e\J	8gg\J
.	.	8.e\L	8.gg\L
.	.	16f\Jk	16aa\Jk
.	.	8.e\L	8.gg\L
!	!	!LO:TX:t=P:problem:kreska pseudotaktowa	!LO:TX:t=P:problem:kreska pseudotaktowa
.	.	16f\Jk	16aa\Jk
=134-	=134-	=134-	=134-
2D/	.	8d\L	8ff\L
.	.	16f\L	16aa\L
.	.	16e\JJ	16gg\JJ
.	.	8d\L	8ff\L
.	.	8f\J	8aa\J
!LO:TX:t=P:problem:kreska pseudotaktowa	!	!LO:TX:t=P:problem:mixed beam	!
2d\	.	8d\L	8ff\
.	.	16F/L	16a/LL
.	.	16E/JJ	16g/JJ
.	.	8D/L	8f/L
!	!	!LO:TX:t=P:problem:kreska pseudotaktowa	!LO:TX:t=P:problem:kreska pseudotaktowa
.	.	8F/J	8a/J
=135-	=135-	=135-	=135-
!	!	!LO:TX:t=P:problem:mixed beam	!LO:TX:t=P:problem:mixed beam
2c\	.	8C/L	8e\L
.	.	16e/L	16gg\L
.	.	16d/JJ	16ff\JJ
.	.	8c\L	8ee\L
.	.	8e\J	8gg\J
2A/	.	8A/	8aa\L
!	!	!LO:MO:mod=*null:null	!
*	*	*clefF4	*
.	.	16AA/LL	16cc\L
.	.	16GG/JJ	16bny\JJ
.	.	8FF/L	8a/L
!	!	!LO:TX:t=P:problem:kreska pseudotaktowa	!
!	!	!	!LO:TX:t=P:problem:kreska pseudotaktowa
.	.	8AA/J	8cc/J
*	*	*custos:DD	*
!	!	!LO:LB:g=original	!
=136-	=136-	=136-	=136-
2d\	.	8DD/L	8dd\L
.	.	16F\L	16aa\L
.	.	16E\JJ	16gg\JJ
.	.	8D\L	8ff\L
.	.	8F\J	8aa\J
!LO:TX:t=P:problem:kreska pseudotaktowa	!	!	!
2e\	.	8C/	8ee\L
!	!	!LO:MO:mod=*null:null	!
*	*	*clefC4	*
.	.	16e\LL	16gg\L
.	.	16d\JJ	16ff\J
.	.	8c\L	8ee\
!	!	!LO:TX:t=P:problem:kreska pseudotaktowa	!LO:TX:t=P:problem:kreska pseudotaktowa
.	.	8e\J	8gg\J
*	*	*	*custos:aa
!	!	!	!LO:LB:g=original
=137-	=137-	=137-	=137-
1f	.	8.f\L	8.aa\L
.	.	16e\Jk	16gg\K
.	.	8d\L	8ff\
.	.	8c\J	8ee\J
.	.	8.F/L	8.a/L
.	.	16E/Jk	16g/K
.	.	8D/L	8f/
!	!	!LO:TX:t=P:problem:kreska pseudotaktowa	!LO:TX:t=P:problem:kreska pseudotaktowa
.	.	8C/J	8e/J
=138-	=138-	=138-	=138-
2e\	.	8G/	8g/L
.	.	16e\LL	16gg\L
.	.	16d\JJ	16ff\J
.	.	8c\L	8ee\
.	.	8Bny\J	8dd\J
!LO:TX:t=P:problem:kreska pseudotaktowa	!	!	!
2A/	.	8e\	8ee\
!	!	!LO:MO:mod=*null:null	!
*	*	*clefF4	*
.	.	16E\LL	16g/LL
.	.	16D\JJ	16f/J
.	.	8C/L	8e/
!	!	!LO:TX:t=P:problem:kreska pseudotaktowa	!LO:TX:t=P:problem:kreska pseudotaktowa
.	.	8BBny/J	8d/J
*	*	*custos:D	*
!	!	!LO:LB:g=original	!
=139-	=139-	=139-	=139-
2Bny\	.	2D/	8f/
.	.	.	16dd\LL
.	.	.	16cc\JJ
.	.	.	8b/L
.	.	.	8a/J
4c\	.	4r	4.a/
!	!	!LO:TX:t=P:problem:kreska pseudotaktowa	!
4C/	.	4C/	.
.	.	.	16b/LL
!	!	!	!LO:TX:t=P:problem:kreska pseudotaktowa
.	.	.	16cc/JJ
=140-	=140-	=140-	=140-
2D/	.	8D/L	2b/
.	.	16BB/L	.
.	.	16C/JJ	.
.	.	16D\LL	.
.	.	16E\	.
.	.	16F\	.
.	.	16D\JJ	.
!LO:TX:t=P:problem:kreska pseudotaktowa	!	!	!
2E/	.	8E\L	2b/
.	.	16C\L	.
.	.	16D\JJ	.
.	.	16E\LL	.
.	.	16F\	.
.	.	16G\	.
!	!	!LO:TX:t=P:problem:kreska pseudotaktowa	!
.	.	16E\JJ	.
=141-	=141-	=141-	=141-
2.F/	.	2.F\	2a/
*	*	*	*custos:cc
!	!	!	!LO:LB:g=original
.	.	.	4r
!	!	!	!LO:TX:t=P:problem:kreska pseudotaktowa
4E/	.	4E\	4cc\
=142-	=142-	=142-	=142-
2D/	.	2D/	8dd\L
.	.	.	16b\L
.	.	.	16cc\
.	.	.	16dd\
.	.	.	16ee\
.	.	.	16ff\
.	.	.	16dd\JJ
!LO:TX:t=P:problem:kreska pseudotaktowa	!	!LO:TX:t=P:problem:kreska pseudotaktowa	!
2C#X/	.	2C#X/	8ee\L
!	!	!	!LO:TX:a:t=P:problem:# above
.	.	.	16cc#X\L
.	.	.	16dd\
.	.	.	16ee\
.	.	.	16ff\
.	.	.	16gg\
!	!	!	!LO:TX:t=P:problem:kreska pseudotaktowa
.	.	.	16ee\JJ
=143-	=143-	=143-	=143-
1D	.	1D	4.ff\
.	.	.	8ee\
.	.	.	8ff\L
.	.	.	8ee\
.	.	.	8ff\
!	!	!	!LO:TX:t=P:problem:kreska pseudotaktowa
.	.	.	8gg\J
=144-	=144-	=144-	=144-
1A	.	4AA/	2ee\
.	.	4.A\	.
.	.	.	[2aa\
.	.	8B-X\	.
.	.	8G\L	.
!	!	!LO:TX:t=P:problem:kreska pseudotaktowa	!
.	.	8A\J	.
=145-	=145-	=145-	=145-
00D	.	8F\L	8aa\]
!	!	!	!LO:TX:a:t=P:problem:♭ above
.	.	8G\J	8bb-X\J
.	.	8E\L	8gg\L
.	.	8F\J	8aa\J
.	.	4D/	8ff\L
.	.	.	8gg\J
!	!	!LO:TX:t=P:problem:kreska pseudotaktowa	!
.	.	4r	8ee\L
!	!	!	!LO:TX:t=P:problem:kreska pseudotaktowa
.	.	.	8ff\J
*	*	*custos:D	*
!	!	!LO:LB:g=original	!
=146-	=146-	=146-	=146-
.	.	16D\LL	2dd\
.	.	16E\	.
.	.	16F\	.
.	.	16G\	.
.	.	16A\	.
.	.	16Bny\	.
.	.	16c\	.
.	.	16A\JJ	.
*	*	*	*custos:d
!	!	!LO:TX:t=P:problem:kreska pseudotaktowa	!LO:LB:g=original
.	.	2d\	16d/LL
.	.	.	16e/
.	.	.	16f/
.	.	.	16g/
.	.	.	16a/
.	.	.	16b/
.	.	.	16ccny/
.	.	.	16a/JJ
=147-	=147-	=147-	=147-
.	.	16r	2dd\
.	.	16A\LL	.
.	.	16G\	.
.	.	16A\JJ	.
.	.	16F\LL	.
.	.	16G\JJ	.
.	.	16E\LL	.
.	.	16F\JJ	.
.	.	1D/	16r
.	.	.	16aa\LL
.	.	.	16gg\
.	.	.	16aa\JJ
.	.	.	16ff\LL
.	.	.	16gg\
.	.	.	16ee\
!	!	!	!LO:TX:t=P:problem:kreska pseudotaktowa
.	.	.	16ff\JJ
=148-	=148-	=148-	=148-
.	.	.	4.dd\
.	.	.	8ee\
.	.	2DD/	8ff\L
.	.	.	8ee\
.	.	.	8ff\
.	.	.	8gg\J
=149-	=149-	=149-	=149-
!LO:MO:mod=1A;	!	!LO:MO:mod=1AA;	!LO:MO:mod=1ee;
0Al;;	.	0AAl;;	0eel;;
==	==	==	==
*-	*-	*-	*-
!!!system-decoration: [(g1)]s3
!!!RDF**kern: l = terminal long
!!!ENC: Anastazja Marusiak
!!!END: 2022-11-04
!!!ENC: Natalia Wrzos
!!!END: 2022-11-12
!!!ENC-modern: Andrzej Borzym
!!!END-modern: 2022-11-29
!!!YEC: Copyright 2022 Narodowy Instytut Fryderyka Chopina (https://polishscores.org)
!!!YEM: License CC-BY-4.0 (https://creativecommons.org/licenses/by/4.0)
